src/pos-icons/camera-burst.svg

<svg height="24" viewBox="0 0 24 24" width="24" xmlns="http://www.w3.org/2000/svg"><path d="m1 5h2v14h-2zm4 0h2v14h-2zm17 0h-12a1 1 0 0 0 -1 1v12a1 1 0 0 0 1 1h12a1 1 0 0 0 1-1v-12a1 1 0 0 0 -1-1m-11 12 2.5-3.15 1.79 2.15 2.5-3.22 3.21 4.22z"/></svg>

<?xml version="1.0" encoding="UTF-8"?><!DOCTYPE svg PUBLIC "-//W3C//DTD SVG 1.1//EN" "http://www.w3.org/Graphics/SVG/1.1/DTD/svg11.dtd"><svg xmlns="http://www.w3.org/2000/svg" xmlns:xlink="http://www.w3.org/1999/xlink" version="1.1" id="mdi-camera-burst" width="24" height="24" viewBox="0 0 24 24"><path d="M1,5H3V19H1V5M5,5H7V19H5V5M22,5H10A1,1 0 0,0 9,6V18A1,1 0 0,0 10,19H22A1,1 0 0,0 23,18V6A1,1 0 0,0 22,5M11,17L13.5,13.85L15.29,16L17.79,12.78L21,17H11Z" /></svg>
